images/heart3.svg

<svg width="321" height="59" viewBox="0 0 321 59" fill="none" xmlns="http://www.w3.org/2000/svg">
<path d="M39.2723 32.4068L35.998 34.3724V38.2983L19.6374 28.4809L3.27137 38.2983V34.3724L0.00244141 32.4068L19.6374 20.6237L39.2723 32.4068Z" fill="#1F305E"/>
<path d="M39.2723 12.7719L35.998 14.7375V18.6634L19.6374 8.84595L3.27137 18.6634V14.7375L0.00244141 12.7719L19.6374 0.98877L39.2723 12.7719Z" fill="#1F305E"/>
<path d="M39.2723 22.5893L35.998 24.555V28.4809L19.6374 18.6634L3.27137 28.4809V24.555L0.00244141 22.5893L19.6374 10.8062L39.2723 22.5893Z" fill="#1F305E"/>
<path d="M39.2723 42.2243L35.998 44.1899V58.5903H3.27137V44.1899L0.00244141 42.2243L19.6374 30.4412L39.2723 42.2243Z" fill="#1F305E"/>
<path d="M69.606 57.5434C69.0345 57.5434 68.4897 57.0733 68.4897 56.5712V19.721H57.3048C56.6158 19.721 56.1885 19.2189 56.1885 18.7489V11.2923C56.1885 10.8276 56.6158 10.3202 57.3048 10.3202H91.0197C91.7087 10.3202 92.136 10.8223 92.136 11.2923V18.7489C92.136 19.2136 91.7087 19.721 91.0197 19.721H79.8348V56.5766C79.8348 57.0733 79.2953 57.5487 78.7184 57.5487H69.606V57.5434Z" fill="#1F305E"/>
<path d="M130.156 57.5434C128.933 57.5434 128.425 57.2122 127.79 56.0104L124.97 50.4286H103.908L101.083 56.0852C100.826 56.6353 100.18 57.5434 98.6418 57.5434H90.2879C89.8285 57.5434 89.4653 57.3724 89.2837 57.0787C89.1342 56.8383 89.1395 56.5392 89.2891 56.2401L113.053 10.208C113.234 9.88217 113.662 9.63113 114.052 9.63113H114.81C115.2 9.63113 115.627 9.88217 115.814 10.2133L139.573 56.2401C139.722 56.5392 139.728 56.833 139.578 57.0787C139.397 57.3724 139.033 57.5434 138.574 57.5434H130.145H130.156ZM108.133 41.7863H120.75L114.714 29.9765C114.671 29.8963 114.586 29.8429 114.495 29.8429H114.319C114.223 29.8429 114.137 29.8963 114.094 29.9818L108.139 41.7916L108.133 41.7863Z" fill="#1F305E"/>
<path d="M174.153 57.5434C173.64 57.5434 173.309 57.2442 173.224 57.0947L163.032 38.8004H157.269V56.5712C157.269 57.068 156.729 57.5434 156.153 57.5434H147.115C146.426 57.5434 146.004 57.0413 146.004 56.5712V11.2923C146.004 10.8276 146.431 10.3202 147.115 10.3202H169.816C178.763 10.3202 186.038 16.7993 186.038 24.7633C186.038 30.5907 181.813 35.7398 175.018 38.2022L174.644 38.3357L185.252 56.0531C185.445 56.3736 185.461 56.7368 185.295 57.0306C185.114 57.3564 184.729 57.5434 184.243 57.5434H174.142H174.153ZM157.274 30.7723H168.844C172.091 30.7723 174.944 28.0589 174.944 24.9716C174.944 21.8843 172.15 19.4433 168.844 19.4433H157.274V30.7723Z" fill="#1F305E"/>
<path d="M196.469 57.5434C195.898 57.5434 195.358 57.0733 195.358 56.5712V11.2923C195.358 10.7956 195.898 10.3202 196.469 10.3202H205.582C206.153 10.3202 206.698 10.7902 206.698 11.2923V56.5766C206.698 57.0733 206.159 57.5487 205.582 57.5487H196.469V57.5434Z" fill="#1F305E"/>
<path d="M241.177 58.2324C233.912 58.2324 227.129 55.7219 222.076 51.1711C217.028 46.6256 214.251 40.531 214.251 34.0092C214.251 27.4874 217.028 21.3608 222.076 16.7779C227.14 12.179 233.923 9.64715 241.177 9.64715C248.43 9.64715 255.23 12.179 260.32 16.7779C265.389 21.3662 268.183 27.482 268.183 34.0092C268.183 40.5364 265.389 46.6202 260.32 51.1711C255.246 55.7273 248.446 58.2324 241.177 58.2324ZM241.177 19.9293C232.663 19.9293 225.74 26.2428 225.74 34.0092C225.74 41.7756 232.668 47.9502 241.177 47.9502C249.686 47.9502 256.693 41.6955 256.693 34.0092C256.693 26.323 249.734 19.9293 241.177 19.9293Z" fill="#1F305E"/>
<path d="M317.494 58.2324C317.179 58.2324 316.918 58.1202 316.725 57.976L287.593 31.4721C287.273 31.189 286.771 31.4133 286.771 31.8406V56.5819C286.771 57.0466 286.344 57.554 285.654 57.554H276.617C276.045 57.554 275.506 57.084 275.506 56.5819L275.431 10.5445C275.431 10.0638 275.949 9.64181 276.547 9.64181H278.641C279.282 9.64181 279.902 9.87683 280.383 10.3041L308.323 35.195C308.644 35.4728 309.141 35.2484 309.141 34.8211V11.2923C309.141 10.8276 309.568 10.3202 310.257 10.3202H319.369C319.941 10.3202 320.486 10.7902 320.486 11.2923V57.3244C320.486 57.8051 319.968 58.2271 319.369 58.2271H317.494V58.2324Z" fill="#1F305E"/>
</svg>

<svg width="321" height="59" fill="none" xmlns="http://www.w3.org/2000/svg"><path d="m39.272 32.407-3.274 1.965v3.926l-16.36-9.817L3.27 38.298v-3.926L.002 32.407l19.635-11.783 19.635 11.783ZM39.272 12.772l-3.274 1.966v3.925l-16.36-9.817L3.27 18.663v-3.925L.002 12.772 19.637.989l19.635 11.783Z" fill="#1F305E"/><path d="m39.272 22.59-3.274 1.965v3.926l-16.36-9.818L3.27 28.481v-3.926L.002 22.589l19.635-11.783L39.272 22.59ZM39.272 42.224l-3.274 1.966v14.4H3.271v-14.4L.002 42.224l19.635-11.783 19.635 11.783ZM69.606 57.543c-.572 0-1.116-.47-1.116-.972v-36.85H57.305c-.69 0-1.117-.502-1.117-.972v-7.457c0-.464.428-.972 1.117-.972H91.02c.689 0 1.116.502 1.116.972v7.457c0 .465-.427.972-1.116.972H79.835v36.856c0 .496-.54.972-1.117.972h-9.112v-.006ZM130.156 57.543c-1.223 0-1.731-.33-2.366-1.533l-2.82-5.581h-21.062l-2.825 5.656c-.257.55-.903 1.458-2.441 1.458h-8.354c-.46 0-.823-.17-1.004-.464-.15-.24-.145-.54.005-.839l23.764-46.032c.181-.326.609-.577.999-.577h.758c.39 0 .817.251 1.004.582l23.759 46.027c.149.3.155.593.005.839-.181.293-.545.464-1.004.464h-8.429.011Zm-22.023-15.757h12.617l-6.036-11.81a.252.252 0 0 0-.219-.133h-.176a.25.25 0 0 0-.225.139l-5.955 11.81-.006-.006ZM174.153 57.543c-.513 0-.844-.299-.929-.448L163.032 38.8h-5.763v17.771c0 .497-.54.972-1.116.972h-9.038c-.689 0-1.111-.502-1.111-.972V11.292c0-.464.427-.972 1.111-.972h22.701c8.947 0 16.222 6.48 16.222 14.443 0 5.828-4.225 10.977-11.02 13.44l-.374.133 10.608 17.717c.193.32.209.684.043.978-.181.325-.566.512-1.052.512h-10.101.011Zm-16.879-26.77h11.57c3.247 0 6.1-2.714 6.1-5.801 0-3.088-2.794-5.529-6.1-5.529h-11.57v11.33ZM196.469 57.543c-.571 0-1.111-.47-1.111-.972V11.292c0-.496.54-.972 1.111-.972h9.113c.571 0 1.116.47 1.116.972v45.285c0 .496-.539.972-1.116.972h-9.113v-.006ZM241.177 58.232c-7.265 0-14.048-2.51-19.101-7.06-5.048-4.546-7.825-10.641-7.825-17.163s2.777-12.648 7.825-17.231c5.064-4.599 11.847-7.13 19.101-7.13 7.253 0 14.053 2.531 19.143 7.13 5.069 4.588 7.863 10.704 7.863 17.231 0 6.527-2.794 12.611-7.863 17.162-5.074 4.556-11.874 7.061-19.143 7.061Zm0-38.303c-8.514 0-15.437 6.314-15.437 14.08 0 7.767 6.928 13.941 15.437 13.941s15.516-6.255 15.516-13.94c0-7.687-6.959-14.08-15.516-14.08ZM317.494 58.232c-.315 0-.576-.112-.769-.256l-29.132-26.504a.493.493 0 0 0-.822.369v24.74c0 .466-.427.973-1.117.973h-9.037c-.572 0-1.111-.47-1.111-.972l-.075-46.038c0-.48.518-.902 1.116-.902h2.094c.641 0 1.261.235 1.742.662l27.94 24.891a.493.493 0 0 0 .818-.374V11.292c0-.464.427-.972 1.116-.972h9.112c.572 0 1.117.47 1.117.972v46.032c0 .481-.518.903-1.117.903h-1.875v.005Z" fill="#1F305E"/></svg>
